X: 237
T: The Young Lady
B: O'Neill's 237
N: "Moderate"
N: "Collected by J.O'Neill"
Z: 1997 by John Chambers <jc@trillian.mit.edu>
M: 3/4
L: 1/8
K:G
D GA \
| (B>A G)B de | (=f>e d)B cc | B2 AG BA | A3 D GA |
| (B>A G)B de | (=f>e d)B cc | B2 G{B}A GG | G3 ||
|| d dd \
| =f2 ed d^f | (g2 B)d =fe | (e2 d)B GB | A3 D GA |
| (B>A G)B de | (=f>e d)B cc | B2 G{B}A GG | G3 ||


